src/svg/uf181-trello.svg

<!-- Generated by IcoMoon.io -->
<svg version="1.1" xmlns="http://www.w3.org/2000/svg" width="27" height="32" viewBox="0 0 27 32">
<path d="M12.571 24v-18.286c0-0.321-0.25-0.571-0.571-0.571h-8.571c-0.321 0-0.571 0.25-0.571 0.571v18.286c0 0.321 0.25 0.571 0.571 0.571h8.571c0.321 0 0.571-0.25 0.571-0.571zM24.571 17.143v-11.429c0-0.321-0.25-0.571-0.571-0.571h-8.571c-0.321 0-0.571 0.25-0.571 0.571v11.429c0 0.321 0.25 0.571 0.571 0.571h8.571c0.321 0 0.571-0.25 0.571-0.571zM27.429 3.429v25.143c0 0.625-0.518 1.143-1.143 1.143h-25.143c-0.625 0-1.143-0.518-1.143-1.143v-25.143c0-0.625 0.518-1.143 1.143-1.143h25.143c0.625 0 1.143 0.518 1.143 1.143z"></path>
</svg>

<svg xmlns="http://www.w3.org/2000/svg" width="27" height="32"><path d="M12.571 24V5.714A.564.564 0 0 0 12 5.143H3.429a.564.564 0 0 0-.571.571V24c0 .321.25.571.571.571H12c.321 0 .571-.25.571-.571zm12-6.857V5.714A.564.564 0 0 0 24 5.143h-8.571a.564.564 0 0 0-.571.571v11.429c0 .321.25.571.571.571H24c.321 0 .571-.25.571-.571zm2.858-13.714v25.143c0 .625-.518 1.143-1.143 1.143H1.143A1.151 1.151 0 0 1 0 28.572V3.429c0-.625.518-1.143 1.143-1.143h25.143c.625 0 1.143.518 1.143 1.143z"/></svg>
